svgs/sharp-light/file-plus-minus.svg

<svg xmlns="http://www.w3.org/2000/svg" viewBox="0 0 384 512"><!--! Font Awesome Pro 6.6.0 by @fontawesome - https://fontawesome.com License - https://fontawesome.com/license (Commercial License) Copyright 2024 Fonticons, Inc. --><path d="M352 480L32 480 32 32l160 0 0 144 0 16 16 0 144 0 0 288zM224 37.3L346.7 160 224 160l0-122.7zM232 0L32 0 0 0 0 32 0 480l0 32 32 0 320 0 32 0 0-32 0-328L232 0zM208 240l0-16-32 0 0 16 0 48-48 0-16 0 0 32 16 0 48 0 0 48 0 16 32 0 0-16 0-48 48 0 16 0 0-32-16 0-48 0 0-48zM128 416l-16 0 0 32 16 0 128 0 16 0 0-32-16 0-128 0z"/></svg>

<svg xmlns="http://www.w3.org/2000/svg" viewBox="0 0 384 512"><!--! Font Awesome Pro 6.4.0 by @fontawesome - https://fontawesome.com License - https://fontawesome.com/license (Commercial License) Copyright 2023 Fonticons, Inc. --><path d="M352 480H32V32H192V176v16h16H352V480zM224 37.3L346.7 160H224V37.3zM232 0H32 0V32 480v32H32 352h32V480 152L232 0zM208 240V224H176v16 48H128 112v32h16 48v48 16h32V368 320h48 16V288H256 208V240zM128 416H112v32h16H256h16V416H256 128z"/></svg>
